!!!COM: Palestrina, Giovanni Perluigi da
!!!OPR: Missa Ad coenam Agni
!!!OMD: Credo
!!!OTL: First Section
**kern	**kern	**kern	**kern	**kern
*Ibass	*Itenor	*Icalto	*Icalto	*Icant
!Bassus	!Tenor	!Altus 2	!Altus 1	!Cantus
*clefF4	*clefGv2	*clefG2	*clefG2	*clefG2
*k[]	*k[]	*k[]	*k[]	*k[]
*G:mix	*G:mix	*G:mix	*G:mix	*G:mix
*M4/2	*M4/2	*M4/2	*M4/2	*M4/2
=1	=1	=1	=1	=1
0r	0d	0r	0r	0r
=2	=2	=2	=2	=2
1r	1e	0r	0r	0r
[1G	1d	.	.	.
=3	=3	=3	=3	=3
1G]	1e	0r	0r	0r
1A	1f#	.	.	.
=4	=4	=4	=4	=4
1G	2.g	0r	0r	0r
.	4f	.	.	.
1A	2e	.	.	.
.	4d	.	.	.
.	4c	.	.	.
=5	=5	=5	=5	=5
2B	2d	0r	0r	1r
1c	1e	.	.	.
.	.	.	.	[1g
4B	4d	.	.	.
4A	4c	.	.	.
=6	=6	=6	=6	=6
1G	4B	0d	0r	1g]
.	4G	.	.	.
.	1g	.	.	.
1D	.	.	.	1a
.	2f#	.	.	.
=7	=7	=7	=7	=7
1r	2g	2e	0r	1g
.	2G	2d	.	.
2r	2c	2e	.	1a
2D	[2d	2f#	.	.
=8	=8	=8	=8	=8
2G	2d]	1g	1r	1b
2E	2.e	.	.	.
[1A	.	2e	[1c	1cc
.	4c	.	.	.
.	[2e	2c	.	.
=9	=9	=9	=9	=9
1A]	2e]	2e	1c]	1a
.	4d	2f#	.	.
.	4c	.	.	.
1G	2B	1g	1d	1b
.	2G	.	.	.
=10	=10	=10	=10	=10
2r	1A	2.e	1c	1a
1c	.	.	.	.
.	.	4f	.	.
.	1G	2g	1d	2dd
2B	.	2g	.	2dd
=11	=11	=11	=11	=11
1A	0r	1a	1e	2cc
.	.	.	.	2cc
[1D	.	1a	1f	2dd
.	.	.	.	[2ff
=12	=12	=12	=12	=12
1D]	1r	[0a	1d	4ff]
.	.	.	.	4ee
.	.	.	.	1dd
2.A	2r	.	1e	.
.	[2A	.	.	2cc#
4G	.	.	.	.
=13	=13	=13	=13	=13
2F	2A]	1a]	1d	1dd
2D	1d	.	.	.
1E	.	1r	2g	1r
.	2c#	.	2g	.
=14	=14	=14	=14	=14
1D	1d	1a	2f	0r
.	.	.	2f	.
[1G	2d	2.b-	2g	.
.	2G	.	[2b-	.
.	.	4a	.	.
=15	=15	=15	=15	=15
1G]	0d	2g	4b-]	1r
.	.	.	4a	.
.	.	2b-	1g	.
1D	.	2a	.	1a
.	.	[2d	2f#	.
=16	=16	=16	=16	=16
1r	1G	2d]	1g	1b
.	.	1e	.	.
1A	1r	.	1r	2cc
.	.	[2f	.	2a
=17	=17	=17	=17	=17
2B	2r	2f]	0r	1g
1c	1e	2e	.	.
.	.	1c	.	2a
2A	2f#	.	.	2cc
=18	=18	=18	=18	=18
1G	2g	1.d	1r	2.b
.	2g	.	.	.
.	.	.	.	4cc
2D	2f	.	1d	1dd
2D	[2d	2f	.	.
=19	=19	=19	=19	=19
1A	2d]	2e	1e	1r
.	2c#	1a	.	.
1r	2d	.	2f	1dd
.	2B	2b	2d	.
=20	=20	=20	=20	=20
1A	1A	2cc	1c	1ee
.	.	2a	.	.
1D	1r	2.a	2d	2ff
.	.	.	2f	2dd
.	.	4g	.	.
=21	=21	=21	=21	=21
2A	2r	4a	2.e	2.cc
.	.	4b	.	.
2A	2A	2cc	.	.
.	.	.	4f	4dd
2.E	2B	2b	1g	4ee
.	.	.	.	4ff
.	[2c	2g	.	[2ee
4F	.	.	.	.
=22	=22	=22	=22	=22
1G	2c]	1g	1r	4ee]
.	.	.	.	4dd
.	2B	.	.	1dd
1r	2e	2r	1g	.
.	2e	[2g	.	2cc#
=23	=23	=23	=23	=23
1r	1d	2g]	1a	[0dd
.	.	2f#	.	.
1G	1r	2g	2b-	.
.	.	2b-	2g	.
=24	=24	=24	=24	=24
1D	1d	2.a	2.f	1dd]
.	.	4g	4g	.
[1F	2A	[1f	4a	1r
.	.	.	4b-	.
.	2c	.	[2a	.
=25	=25	=25	=25	=25
2F]	2d	2f]	4a]	0r
.	.	.	4g	.
2G	2.e	4e	1g	.
.	.	4d	.	.
2A	.	2c	.	.
.	4d	.	.	.
2A	[2c	2c	2f#	.
=26	=26	=26	=26	=26
1G	2c]	1d	[0g	1dd
.	2B	.	.	.
2r	4c	1c	.	1ee
.	4d	.	.	.
[2c	4e	.	.	.
.	4c	.	.	.
=27	=27	=27	=27	=27
2c]	1d	2G	1g]	2.gg
2B	.	2.g	.	.
.	.	.	.	4ff
2.c	2r	.	1r	2.ee
.	.	4f	.	.
.	[2g	[2e	.	.
4B	.	.	.	4dd
=28	=28	=28	=28	=28
1A	2g]	2e]	0r	1cc
.	2f#	4d	.	.
.	.	4c	.	.
1G	2.g	1d	.	1b
.	4f	.	.	.
=29	=29	=29	=29	=29
1C	4e	0c	1g	0r
.	4d	.	.	.
.	4c	.	.	.
.	4B	.	.	.
2r	2.A	.	1a	.
[2F	.	.	.	.
.	4G	.	.	.
=30	=30	=30	=30	=30
2F]	2F	0c	2.cc	2r
2E	2G	.	.	2.cc
.	.	.	4b	.
2.F	2A	.	2.a	.
.	.	.	.	4cc
.	[2c	.	.	2cc
4E	.	.	4g	.
=31	=31	=31	=31	=31
1D	2c]	1r	1f	1dd
.	2B	.	.	.
2C	1c	2r	1e	1ee
[2c	.	[2g	.	.
=32	=32	=32	=32	=32
4c]	1r	4g]	0r	1.ee
4c	.	4g	.	.
2c	.	2g	.	.
2.A	2r	1a	.	.
.	[2c	.	.	2ee
4G	.	.	.	.
=33	=33	=33	=33	=33
2.F	4c]	2a	2r	1ff
.	4c	.	.	.
.	2c	1a	2.f	.
4E	.	.	.	.
1D	1d	.	.	1ff
.	.	.	4f	.
.	.	2b	2f	.
=34	=34	=34	=34	=34
1C	1e	2.cc	1g	1ee
.	.	4b	.	.
1F	2c	4a	1a	1r
.	.	4g	.	.
.	2c	[2f	.	.
=35	=35	=35	=35	=35
1D	2f	4f]	1.a	0r
.	.	4e	.	.
.	2f	1d	.	.
2A	2.e	.	.	.
2A	.	2c#	2a	.
.	4f#	.	.	.
=36	=36	=36	=36	=36
2G	1g	2d	1b-	1r
1G	.	1g	.	.
.	2r	.	1b-	[1dd
2G	[2d	2g	.	.
=37	=37	=37	=37	=37
2D	2d]	2f	1a	2dd]
2D	2d	2f	.	2dd
1F	2A	1a	1r	2cc
.	2A	.	.	2cc
=38	=38	=38	=38	=38
2C	1c	1g	0r	1ee
1c	.	.	.	.
.	2G	2.g	.	1dd
2B	[2g	.	.	.
.	.	4f	.	.
=39	=39	=39	=39	=39
2c	2g]	2e	1r	2r
2A	2f#	2c	.	1cc
1G	2g	2d	[1g	.
.	2d	2d	.	2b
=40	=40	=40	=40	=40
1C	1e	2c	2g]	2cc
.	.	2.cc	2g	2cc
[1F	2.c	.	2f	2.a
.	.	4b	.	.
.	.	4a	2f	.
.	4B	4g	.	4b
=41	=41	=41	=41	=41
2F]	4A	2.f	1a	1cc
.	4G	.	.	.
2F	2A	.	.	.
.	.	4e	.	.
1G	2B	4d	1g	2b
.	.	4c	.	.
.	2G	[2d	.	2b
=42	=42	=42	=42	=42
2.D	2A	2d]	2r	0a
.	1d	2d	1f	.
4E	.	.	.	.
4F	.	1A	.	.
4G	.	.	.	.
2A	2c#	.	2e	.
=43	=43	=43	=43	=43
2.D	2d	2.a	2f	0r
.	2d	.	2f	.
4E	.	4g	.	.
2F	2A	2a	2.d	.
2G	[2d	[2b-	.	.
.	.	.	4e	.
=44	=44	=44	=44	=44
2D	4d]	4b-]	1f	0r
.	4c	4a	.	.
2F	4A	1a	.	.
.	4B	.	.	.
2C	2.c	.	2e	.
2C	.	[2g	2e	.
.	4B	.	.	.
=45	=45	=45	=45	=45
1D	2A	2g]	0d	1a
.	2A	2f#	.	.
1r	2G	2g	.	2b
.	[2G	2d	.	2b
=46	=46	=46	=46	=46
1C	2G]	2e	0r	1cc
.	2c	2e	.	.
2F	2c	1f	.	1a
2F	[2d	.	.	.
=47	=47	=47	=47	=47
1G	2d]	2d	0r	1g
.	4c	2e	.	.
.	4B	.	.	.
1F	1A	2f	.	2a
.	.	2c	.	2cc
=48	=48	=48	=48	=48
2r	1G	1.g	1d	4b
.	.	.	.	4cc
2G	.	.	.	4dd
.	.	.	.	4b
2C	2r	.	2e	2cc
2C	2G	2g	2e	2cc
=49	=49	=49	=49	=49
2F	2A	1c	1f	1a
2F	1c	.	.	.
1G	.	2r	1d	1dd
.	2B	2g	.	.
=50	=50	=50	=50	=50
2C	1c	2e	1c	1ee
2E	.	2.c	.	.
1D	1F	.	2d	2ff
.	.	8B	.	.
.	.	8A	.	.
.	.	2B	2f	2dd
=51	=51	=51	=51	=51
1C	1G	2.c	4e	1ee
.	.	.	4f	.
.	.	.	4g	.
.	.	4B	4e	.
1D	2r	4A	2f	2.dd
.	.	4G	.	.
.	[2d	2A	2f	.
.	.	.	.	4cc
=52	=52	=52	=52	=52
2G	2d]	4B	1d	2b
.	.	4c	.	.
2F	2A	2d	.	1a
1E	2B	1G	1g	.
.	2G	.	.	[2g
=53	=53	=53	=53	=53
1D	1d	2r	1a	2g]
.	.	1d	.	2f#
1G	1r	.	2b-	1g
.	.	2e	2g	.
=54	=54	=54	=54	=54
2D	2r	2f	1a	0r
2F	2A	2d	.	.
2.E	2B	2e	2.g	.
.	2G	[2g	.	.
4D	.	.	4f	.
=55	=55	=55	=55	=55
2C	1A	2g]	2e	0r
2D	.	2f	1d	.
2E	1G	1e	.	.
2C	.	.	[2c	.
=56	=56	=56	=56	=56
1G	1r	1d	2c]	2r
.	.	.	2B	1g
1C	2r	2.e	1c	.
.	[2c	.	.	2g
.	.	4d	.	.
=57	=57	=57	=57	=57
0r	2c]	2c	0r	2a
.	2d	2B	.	2b
.	2e	1A	.	1cc
.	2f#	.	.	.
=58	=58	=58	=58	=58
1.G	0g	2r	0r	0b
.	.	2d	.	.
.	.	2d	.	.
2G	.	[2e	.	.
=59	=59	=59	=59	=59
2.A	1c	2e]	2r	1r
.	.	2f	1c	.
4B	.	.	.	.
2c	1r	2.e	.	[1g
2C	.	.	2c	.
.	.	8d	.	.
.	.	8c	.	.
=60	=60	=60	=60	=60
2.G	0r	2B	2d	2g]
.	.	2G	2e	2g
8F	.	.	.	.
8E	.	.	.	.
1D	.	1d	1f	2a
.	.	.	.	2b
=61	=61	=61	=61	=61
0C	2r	2G	0e	1cc
.	1c	2g	.	.
.	.	2g	.	1cc
.	2c	[2a	.	.
=62	=62	=62	=62	=62
1r	2d	2a]	1r	1b
.	2e	2g	.	.
2.F	1f	[1a	[1c	2.a
4G	.	.	.	4b
=63	=63	=63	=63	=63
2A	1e	1a]	2c]	4cc
.	.	.	.	4dd
2A	.	.	2c	2ee
2D	2d	1a	2d	2ff
2A	2c#	.	2e	2ee
=64	=64	=64	=64	=64
1D	0d	0a	1f	2.dd
.	.	.	.	8cc
.	.	.	.	8b
1D	.	.	1f	2a
.	.	.	.	[2dd
=65	=65	=65	=65	=65
1A	0r	1a	1e	2dd]
.	.	.	.	2cc#
[1D	.	2r	2.d	[1dd
.	.	2a	.	.
.	.	.	4e	.
=66	=66	=66	=66	=66
1D]	2r	2a	4f	0dd]
.	.	.	4g	.
.	2A	2.f	2a	.
1D	2d	.	2b-	.
.	.	4f	.	.
.	[2d	2f	2a	.
=67	=67	=67	=67	=67
2G	4d]	1d	2.g	0r
.	4d	.	.	.
2.G	1B	.	.	.
.	.	.	8f	.
.	.	.	8e	.
.	.	1g	2d	.
4G	.	.	.	.
2E	[2e	.	[2g	.
=68	=68	=68	=68	=68
1A	4e]	1c	2g]	1r
.	4d	.	.	.
.	1c	.	2f#	.
1G	.	1d	[1g	1dd
.	2B	.	.	.
=69	=69	=69	=69	=69
0C	2c	1c	0g]	1.ee
.	2G	.	.	.
.	2c	2r	.	.
.	2c	2c	.	2ee
=70	=70	=70	=70	=70
0r	2B	2g	0r	2dd
.	2.c	2g	.	2.ee
.	.	2e	.	.
.	4B	.	.	4dd
.	4A	[2f	.	4cc
.	4G	.	.	4b
=71	=71	=71	=71	=71
0r	2A	4f]	1r	2cc
.	.	4e	.	.
.	2A	4d	.	2cc
.	.	4c	.	.
.	1G	[1d	1g	2.b
.	.	.	.	4cc
=72	=72	=72	=72	=72
1D	0r	2d]	1.a	1dd
.	.	2d	.	.
2F	.	2.c	.	1r
2F	.	.	2a	.
.	.	4d	.	.
=73	=73	=73	=73	=73
2E	0r	4e	2g	0r
.	.	4d	.	.
2.F	.	4c	2.a	.
.	.	4B	.	.
.	.	4A	.	.
4E	.	4B	4g	.
4D	.	[2c	4f	.
4C	.	.	4e	.
=74	=74	=74	=74	=74
2D	2r	2c]	2f	1dd
2D	2d	2B	2f	.
[1C	2g	2c	2.e	2ee
.	2g	2c	.	2ee
.	.	.	4f	.
=75	=75	=75	=75	=75
1C]	1c	2e	1g	1ee
.	.	2e	.	.
1r	2B	1g	1r	2dd
.	2c	.	.	2ee
=76	=76	=76	=76	=76
0r	4c	2e	0r	4ee
.	4B	.	.	4dd
.	4A	2f	.	4cc
.	4G	.	.	4b
.	1A	4f	.	1cc
.	.	4e	.	.
.	.	4d	.	.
.	.	4c	.	.
=77	=77	=77	=77	=77
2r	1G	0d	1g	1b
2G	.	.	.	.
2D	2r	.	2a	1r
2D	2d	.	2a	.
=78	=78	=78	=78	=78
1F	2A	2.c	1a	0r
.	2A	.	.	.
.	.	4d	.	.
2E	1c	2e	2g	.
2F	.	[2A	2a	.
=79	=79	=79	=79	=79
4F	2A	4A]	4a	1r
4E	.	4B	4g	.
4D	2A	1c	4f	.
4C	.	.	4e	.
1D	1F	.	1f	1dd
.	.	2B	.	.
=80	=80	=80	=80	=80
1C	2G	1c	1e	2.gg
.	2G	.	.	.
.	.	.	.	4ff
1r	2.g	2r	1r	2ee
.	.	2G	.	2dd
.	4f	.	.	.
=81	=81	=81	=81	=81
1r	2e	2.g	0r	2cc
.	2d	.	.	2b
.	.	4f	.	.
2r	2c	2e	.	2a
2G	2B	2d	.	[2g
=82	=82	=82	=82	=82
1.c	1A	2e	1r	2g]
.	.	2c	.	2f#
.	2G	1d	1g	1g
2B	2d	.	.	.
=83	=83	=83	=83	=83
2.A	1e	2c	2.cc	0r
.	.	2c	.	.
4G	.	.	4b	.
2F	2f	2.cc	2a	.
2E	2g	.	2g	.
.	.	4b	.	.
=84	=84	=84	=84	=84
0F	1c	2a	2f	0r
.	.	2g	2e	.
.	2r	2f	2d	.
.	2c	2e	[2c	.
=85	=85	=85	=85	=85
1G	2.g	1d	2c]	1dd
.	.	.	2B	.
.	4f	.	.	.
[1C	2.e	2c	[1c	2.gg
.	.	2g	.	.
.	4d	.	.	4ff
=86	=86	=86	=86	=86
1C]	2c	2.cc	0c]	2ee
.	2G	.	.	2dd
.	.	4b	.	.
[1F	[1A	2a	.	2cc
.	.	2g	.	2b
=87	=87	=87	=87	=87
1F]	2A]	1f	[0c	1a
.	2B	.	.	.
[1C	1c	[1e	.	[1g
=88	=88	=88	=88	=88
0C]	0G	0e]	0c]	0g]
=89	=89	=89	=89	=89
0C	0c	0e	0r	0g
=90	=90	=90	=90	=90
1F	1c	1f	1r	1a
1C	1c	1e	[1c	1g
=91	=91	=91	=91	=91
2F	2A	1f	1c]	1a
2A	2c	.	.	.
2.G	2B	[1g	1d	1b
.	2d	.	.	.
4F	.	.	.	.
=92	=92	=92	=92	=92
2E	2G	2g]	1c	1cc
2F	1c	1a	.	.
1D	.	.	1d	1r
.	2B	4g	.	.
.	.	4f	.	.
=93	=93	=93	=93	=93
1C	2c	2a	1e	1r
.	1c	2g	.	.
1F	.	2r	1f	1a
.	[2d	2a	.	.
=94	=94	=94	=94	=94
1G	2d]	1g	0r	1b
.	1e	.	.	.
1A	.	1e	.	1cc
.	[2A	.	.	.
=95	=95	=95	=95	=95
2D	2A]	1f	1d	1a
2F	2.d	.	.	.
1E	.	2g	1e	1g
.	4c	.	.	.
.	4c	2G	.	.
.	4B	.	.	.
=96	=96	=96	=96	=96
1D	1.d	2r	1f	1.a
.	.	4d	.	.
.	.	4e	.	.
1r	.	4f	1d	.
.	.	4d	.	.
.	4c	[2g	.	2b
.	4B	.	.	.
=97	=97	=97	=97	=97
1r	1A	2g]	1c	1cc
.	.	2f#	.	.
2r	1G	[1g	[1d	[1b
[2G	.	.	.	.
=98	=98	=98	=98	=98
2G]	1B	1g]	2d]	1b]
2G	.	.	2e	.
2.F	2c	1a	1f	1r
.	[2d	.	.	.
4G	.	.	.	.
=99	=99	=99	=99	=99
1A	4d]	2r	0e	1a
.	4c	.	.	.
.	2c	1a	.	.
1E	2B	.	.	1b
.	[2e	2g#	.	.
=100	=100	=100	=100	=100
2.A	4e]	1a	1r	1cc
.	4d	.	.	.
.	4c	.	.	.
4G	4B	.	.	.
2F	2A	2a	1d	2dd
2G	2d	[2g	.	2b
=101	=101	=101	=101	=101
1C	2.c	4g]	1e	1cc
.	.	4f	.	.
.	.	4e	.	.
.	4B	4d	.	.
1r	2A	2c	1f	1cc
.	2A	2c	.	.
=102	=102	=102	=102	=102
1r	1G	2d	2g	1b
.	.	2g	2e	.
[1D	2r	1a	1f	1r
.	[2A	.	.	.
=103	=103	=103	=103	=103
1D]	2A]	1a	1f	1r
.	1d	.	.	.
1A	.	2r	1e	1a
.	2c	[2a	.	.
=104	=104	=104	=104	=104
1E	2B	2a]	0r	1b
.	1e	1g	.	.
1A	.	.	.	1cc
.	4d	2f#	.	.
.	4c	.	.	.
=105	=105	=105	=105	=105
2.G	4d	2g	1d	1.b
.	4c	.	.	.
.	4B	2.g	.	.
4F#	4A	.	.	.
2G	2B	.	1e	.
.	.	4f	.	.
2A	2c	2e	.	4a
.	.	.	.	4g
=106	=106	=106	=106	=106
1D	2A	1d	1f	2a
.	1d	.	.	2a
2.E	.	1G	[1e	1g
.	[2c	.	.	.
4F	.	.	.	.
=107	=107	=107	=107	=107
0G	2c]	0g	2e]	1r
.	4B	.	4d	.
.	4A	.	4c	.
.	1B	.	2d	1dd
.	.	.	2d	.
=108	=108	=108	=108	=108
2.c	2.c	1g	[0c	1ee
4B	4d	.	.	.
2.A	1e	2a	.	1cc
.	.	[2cc	.	.
4G	.	.	.	.
=109	=109	=109	=109	=109
1F	0f	4cc]	1c_	2.a
.	.	4b	.	.
.	.	4a	.	.
.	.	4g	.	4b
1F	.	2a	1c_	2cc
.	.	2a	.	2dd
=110	=110	=110	=110	=110
[0C	[0e	[0g	0c]	[0ee
=111	=111	=111	=111	=111
0C]	0e]	0g]	0c	0ee]
*-	*-	*-	*-	*-
!!!CDT: 1525/^1526/-1594/2/2
!!!OCY: Italia
!!!AGN: Mass (Canonic)
!!!AST: renaissance, vocal
!!!ASW: Hymn
!!!PWK: Masses, Book I
!!!RNB: Cadence finals: C
!!!YOR: Le Opere Complete, v. 1, p. 125
!!!YOO: Rome, Italy: Fratelli Scalera
!!!END: 1992//
!!!EED: John Miller
!!!YEC: Copyright 2000, John Miller
!!!YEN: United States of America
!!!YEM: Rights to all derivative electronic formats reserved.
!!!YEM: Refer to licensing agreement for further details.
!!!YEM: This file must be accompanied by the licensing agreement.
!!!YEM: A copy of the licensing agreement may be found at http://www.music-cog.ohio-state.edu/HumdrumDatabases/Palestrina/license.txt
!!!EMD: converted to Humdrum by Bret Aarden
